svgs/light/list-ul.svg

<svg xmlns="http://www.w3.org/2000/svg" viewBox="0 0 512 512"><!-- Font Awesome Pro 6.0.0-alpha2 by @fontawesome - https://fontawesome.com License - https://fontawesome.com/license (Commercial License) --><path d="M48.188 384C30.664 384 16 398.375 16 416S30.664 448 48.188 448C65.834 448 80 433.625 80 416S65.834 384 48.188 384ZM176 112H496C504.801 112 512 104.799 512 96C512 87.199 504.801 80 496 80H176C167.201 80 160 87.199 160 96C160 104.799 167.201 112 176 112ZM48.188 224C30.664 224 16 238.375 16 256S30.664 288 48.188 288C65.834 288 80 273.625 80 256S65.834 224 48.188 224ZM496 240H176C167.201 240 160 247.199 160 256C160 264.799 167.201 272 176 272H496C504.801 272 512 264.799 512 256C512 247.199 504.801 240 496 240ZM496 400H176C167.201 400 160 407.199 160 416C160 424.799 167.201 432 176 432H496C504.801 432 512 424.799 512 416C512 407.199 504.801 400 496 400ZM48.188 64C30.664 64 16 78.375 16 96S30.664 128 48.188 128C65.834 128 80 113.625 80 96S65.834 64 48.188 64Z"/></svg>

<svg xmlns="http://www.w3.org/2000/svg" viewBox="0 0 512 512"><!--! Font Awesome Pro 6.4.0 by @fontawesome - https://fontawesome.com License - https://fontawesome.com/license (Commercial License) Copyright 2023 Fonticons, Inc. --><path d="M64 64a32 32 0 1 0 0 64 32 32 0 1 0 0-64zM176 80c-8.8 0-16 7.2-16 16s7.2 16 16 16H496c8.8 0 16-7.2 16-16s-7.2-16-16-16H176zm0 160c-8.8 0-16 7.2-16 16s7.2 16 16 16H496c8.8 0 16-7.2 16-16s-7.2-16-16-16H176zm0 160c-8.8 0-16 7.2-16 16s7.2 16 16 16H496c8.8 0 16-7.2 16-16s-7.2-16-16-16H176zM96 256a32 32 0 1 0 -64 0 32 32 0 1 0 64 0zM64 384a32 32 0 1 0 0 64 32 32 0 1 0 0-64z"/></svg>
